camera.svg

<svg fill="currentColor" viewBox="0 0 24 24"><path d="M4 4h3l2-2h6l2 2h3a2 2 0 0 1 2 2v12a2 2 0 0 1-2 2H4a2 2 0 0 1-2-2V6a2 2 0 0 1 2-2m8 3a5 5 0 0 0-5 5 5 5 0 0 0 5 5 5 5 0 0 0 5-5 5 5 0 0 0-5-5m0 2a3 3 0 0 1 3 3 3 3 0 0 1-3 3 3 3 0 0 1-3-3 3 3 0 0 1 3-3"/></svg>

<svg  viewBox="0 0 24 24" fill="currentColor"><path  d="M4,4H7L9,2H15L17,4H20A2,2 0 0,1 22,6V18A2,2 0 0,1 20,20H4A2,2 0 0,1 2,18V6A2,2 0 0,1 4,4M12,7A5,5 0 0,0 7,12A5,5 0 0,0 12,17A5,5 0 0,0 17,12A5,5 0 0,0 12,7M12,9A3,3 0 0,1 15,12A3,3 0 0,1 12,15A3,3 0 0,1 9,12A3,3 0 0,1 12,9Z"/></svg>
